lib/brands/icons/evernote.svg

<svg xmlns="http://www.w3.org/2000/svg" fill="none" aria-hidden="true" viewBox="0 0 48 48"><g id="evernote-Icon"><path id="logo" fill="#20C05C" fill-rule="evenodd" d="M36.6061 13.5678C36.3685 12.2907 35.6122 11.6614 34.9285 11.414C34.1909 11.1463 32.6951 10.869 30.8157 10.6466C29.3037 10.4679 27.5266 10.4821 26.4531 10.5154C26.3243 9.62946 25.7053 8.82013 25.0127 8.53992C23.1675 7.79425 20.3165 7.97439 19.5846 8.18035C19.0028 8.34356 18.3591 8.6781 18.0008 9.19349C17.7604 9.53779 17.605 9.97888 17.6038 10.5951C17.6038 10.9439 17.6134 11.7654 17.6223 12.4954C17.6296 13.1054 17.6375 13.6617 17.6399 13.833L17.6406 13.8869C17.6403 14.5388 17.114 15.0694 16.4618 15.0702H13.47C12.8319 15.0702 12.3443 15.1779 11.9718 15.3478C11.5988 15.5178 11.3346 15.7471 11.1338 16.0183C10.7342 16.5568 10.6649 17.2215 10.6665 17.8997C10.6665 17.8997 10.6724 18.4539 10.8054 19.5267C10.916 20.3567 11.8125 26.155 12.6641 27.9184C12.9943 28.6045 13.2142 28.8903 13.8629 29.1927C15.3082 29.8139 18.6095 30.5051 20.1567 30.703C20.4127 30.7358 20.6528 30.7747 20.878 30.8112C22.0117 30.9947 22.7663 31.1169 23.2483 30.1024C23.2502 30.0994 23.364 29.7998 23.5205 29.3604C24.022 27.8346 24.0919 26.4807 24.0919 25.5011C24.0919 25.4015 24.2374 25.3969 24.2374 25.5011C24.2374 25.5396 24.237 25.5835 24.2366 25.6323C24.2289 26.4596 24.2083 28.6769 25.9475 29.2971C26.6745 29.5559 28.1827 29.7867 29.7151 29.967C31.1007 30.1269 32.1063 30.6743 32.1063 34.2434C32.1063 36.4148 31.652 36.7125 29.2772 36.7125L29.1006 36.7126C27.307 36.7141 26.6184 36.7146 26.6184 35.2271C26.6184 34.0918 27.6415 34.1039 28.5095 34.1142C28.5903 34.1152 28.6698 34.1161 28.747 34.1161C29.0017 34.1161 28.9797 33.9964 28.9285 33.7168C28.8983 33.5521 28.858 33.332 28.858 33.0483C28.858 32.7254 28.9432 32.4603 29.0073 32.2612C29.0943 31.9905 29.1422 31.8416 28.8836 31.8352C25.7506 31.7487 23.9071 31.8316 23.9071 35.7655C23.9071 39.3368 25.2684 40 29.7151 40C33.2016 40 34.4306 39.8854 35.8701 35.4009C36.1551 34.5156 36.844 31.8139 37.2609 27.2777C37.5244 24.4095 37.0123 15.7527 36.6061 13.5678ZM30.5285 23.1363C30.0978 23.1212 29.6835 23.1485 29.2972 23.2108C29.4059 22.3292 29.7683 21.2475 31.0523 21.2928C32.4735 21.3419 32.6727 22.6905 32.6778 23.604C32.0785 23.3358 31.3366 23.1648 30.5285 23.1363ZM13.3299 14.1979C12.5952 14.1979 11.9815 14.3236 11.4754 14.5529C11.4523 14.563 11.2907 14.6432 11.1707 14.7028L11.1675 14.7044C11.1708 14.692 11.1779 14.6798 11.1893 14.6704L17.0015 8.88383C17.0128 8.87242 17.0243 8.86679 17.0357 8.86486L16.9334 9.05775C16.7193 9.48721 16.5965 9.99979 16.5965 10.5877V10.5961C16.5965 11.2848 16.6301 13.694 16.6327 13.876L16.6328 13.8869C16.6324 14.0577 16.4946 14.1979 16.3232 14.1979H13.3299Z" clip-rule="evenodd"/></g></svg>

<svg xmlns="http://www.w3.org/2000/svg" fill="none" aria-hidden="true" viewBox="0 0 48 48"><path fill="#20C05C" fill-rule="evenodd" d="M36.606 13.568c-.237-1.277-.994-1.907-1.677-2.154-.738-.268-2.234-.545-4.113-.767-1.512-.18-3.29-.165-4.363-.132-.129-.886-.748-1.695-1.44-1.975-1.845-.746-4.696-.566-5.428-.36-.582.164-1.226.498-1.584 1.013-.24.345-.396.786-.397 1.402 0 .349.01 1.17.018 1.9l.018 1.338v.054c0 .652-.526 1.182-1.178 1.183H13.47c-.638 0-1.126.108-1.498.278-.373.17-.637.4-.838.67-.4.539-.469 1.203-.467 1.882 0 0 .005.554.139 1.627.11.83 1.007 6.628 1.858 8.391.33.687.55.972 1.199 1.275 1.445.62 4.747 1.312 6.294 1.51.256.033.496.072.721.108 1.134.184 1.888.306 2.37-.709.002-.003.116-.302.273-.742.501-1.525.571-2.88.571-3.859 0-.1.146-.104.146 0l-.001.131c-.008.828-.028 3.045 1.71 3.665.728.259 2.236.49 3.768.67 1.386.16 2.391.707 2.391 4.276 0 2.172-.454 2.47-2.829 2.47h-.176c-1.794.001-2.482.002-2.482-1.486 0-1.135 1.023-1.123 1.89-1.113l.238.002c.255 0 .233-.12.182-.4a3.493 3.493 0 0 1-.07-.668c0-.323.084-.588.148-.787.087-.27.135-.42-.123-.426-3.133-.086-4.977-.003-4.977 3.93 0 3.572 1.361 4.235 5.808 4.235 3.487 0 4.716-.115 6.155-4.6.285-.884.974-3.586 1.391-8.122.264-2.868-.248-11.525-.655-13.71Zm-6.077 9.568a6.356 6.356 0 0 0-1.232.075c.109-.882.471-1.963 1.755-1.918 1.422.049 1.62 1.398 1.626 2.311-.6-.268-1.341-.44-2.15-.468ZM13.33 14.198c-.735 0-1.348.126-1.854.355-.024.01-.185.09-.305.15l-.003.001a.066.066 0 0 1 .021-.034l5.813-5.786a.062.062 0 0 1 .034-.02l-.102.194a3.39 3.39 0 0 0-.337 1.53v.008c0 .689.033 3.098.036 3.28v.01a.31.31 0 0 1-.31.312H13.33Z" clip-rule="evenodd"/></svg>
